X:274
%%etbk:tnset id:83,pos:3,rep:3x,ant:
%%etbk:wsite http://www.thesession.org/tunes/display/31
%%etbk:pldat 2015-04-22T16:06,2014-12-14T15:52,2014-11-22T16:44,2014-05-07T15:42,2014-03-27T18:22,2014-02-09T13:29,2014-02-05T15:46,2013-11-06T17:33,2013-05-15T16:43
T: King of the Pipers, The
T: Franc A'Phoill
Z: Piano Box Version by Martin Fleischmann
H: Created 2013-02-19 /  Last Modified 2013-02-19
M: 6/8
L: 1/8
R: jig
K: Dmix
|:"D"!2!A2!1!D !3!B2!1!G | !2!AA!1!G !3!FED | !4!A2!1!D !5!c!4!A!2!F | "G"!3!G2G GFG | 
"D"!4!A2!1!D !2!ABG | !2!AA!1!G !3!FE!1!D | "C"!1!C!2!E!3!G !5!c2!2!A |1 !1!GBA !1!G!2!F!1!G:|2 !1!GBA !1!G!3!B!4!c:|
|:"D"!5!d!3!f!5!a !5!a!3!f!1!d | !3!ded !2!c!1!A!3!G | !2!FG!4!A !5!c!4!A!2!F | "G"!3!GGG "D"!3!G!2!F!1!D |
!5!d!3!f!5!a afd | !4!gf!2!e !3!f2!1!e | !3!dfe !3!d!1!A!2!F | "A"!3!GEF !3!G!2!F!1!E:|
|:"D"!3!dfe !3!dfe | !3!d!1!A!4!G !3!FED | !3!ded !3!d!1!A!2!F | "A"!3!GEF GFE | 
"D"!3!ded !2!ccc | !3!BAG !4!A!2!F!1!D | "C"!1!C!2!E!3!G !5!c2!2!A | !1!GBA !1!G!3!B!4!c:|
|:"D"!5!d!1!DD !4!cDD | !3!BDD !2!ADD | !5!dDD !4!c!2!A!1!G | !3!FAG !3!FED |
!5!d!1!DD !4!cDD | !3!BDD !4!A!2!F!1!D | "C"!1!C!2!E!3!G !5!c2!2!A |1 !1!GBA !1!G!3!B!4!c:|2 !1!GBA !1!G!2!F!1!G:|


